X: 226
T: 227. Lobet den Herren, denn er ist freundlich
N: Derived from chor227.krn
C: Johann Sebastian Bach
%%abc-version 2.0
%%abcx-abcm2ps-target-version 5.9.1 (29 Sep 2008)
%%abc-creator hum2abc beta
%%abcx-conversion-date 2019/03/11 17:28:19
%%abc-edited-by Craig Stuart Sapp
%%humdrum-veritas 2507856164
%%humdrum-veritas-data 38798493
%%
%%barnumbers 0
L: 1/8
M: C
%%staves [1 2 3 4]
V: 1 clef=treble
V: 2 clef=treble
V: 3 clef=treble-8
V: 4 clef=bass
K: F
[V:1] G2 [I:setbarnb 1]| 
[V:2] DC | 
[V:3] BA | 
[V:4] G,,A,, | 
[V:1] D2G2G4 | 
[V:2] B,CD2-DC/B,/ A,G, | 
[V:3] GAB2-BA/G/c2 | 
[V:4] B,,A,,G,,2_E,4 | 
[V:1] !fermata!A4z2A2 | 
[V:2] !fermata!D4x2^F2 | 
[V:3] !fermata!^F4x2d2 | 
[V:4] !fermata!D,4z2D,2 | 
[V:1] Bcd2^c4 | 
[V:2] G2A2A4 | 
[V:3] def2ed e/^f/g | 
[V:4] G,2=F,G,A,4 | 
[V:1] !fermata!d4B2B2 | 
[V:2] !fermata!A4GAB2- | 
[V:3] !fermata!^f4d2=f2 | 
[V:4] !fermata!D,4G,F, _E,D, | 
[V:1] c2c2d4 | 
[V:2] B2A2B3_A | 
[V:3] g2f2f2f2 | 
[V:4] _E,C, F,F,, B,,C,D,B,, | 
[V:1] !fermata!B4z2d2 | 
[V:2] !fermata!G4x2B2 | 
[V:3] !fermata!_e4x2f2 | 
[V:4] !fermata!_E,4z2B,,2 | 
[V:1] c2c2c2A2 | 
[V:2] AG FE FG AG | 
[V:3] fBAG ABc2- | 
[V:4] F,G,A,B, A,G,F,E, | 
[V:1] d2c2B2A2 | 
[V:2] A^F GA- AG- GF | 
[V:3] cB- BA B/c/d d3/c/ | 
[V:4] ^F,D,E,F,G,2D,2 | 
[V:1] G4!fermata!A4 | 
[V:2] G3/^F/ GG,!fermata!D4 | 
[V:3] Bd2c!fermata!^F4 | 
[V:4] _E,4!fermata!D,4 | 
[V:1] B2A2G2^F2 | 
[V:2] DE =F^F G_ED2- | 
[V:3] G2c2dc/B/A2 | 
[V:4] G,,2A,,2B,,C, D,C, | 
[V:1] G4!fermata!A4 | 
[V:2] DCDB,!fermata!D4 | 
[V:3] GDG4!fermata!^F2 | 
[V:4] B,,A,,B,,G,,!fermata!D,4 | 
[V:1] z2d2B2B2 | 
[V:2] x2^F2D2G2 | 
[V:3] x2A2GA Bc | 
[V:4] z2D,2G,=F,_E,2 | 
[V:1] B2d2c2B2 | 
[V:2] F2-FG/F/ E^FG2- | 
[V:3] d_e dB GA B/c/d | 
[V:4] D,C,B,,2-B,,A,, G,,B,, | 
[V:1] A2G2A4 | 
[V:2] G^FG2G2F2 | 
[V:3] _ed/c/ Bc/d/_e2d3/c/ | 
[V:4] C,D,_E,D, C,A,,D,2 | 
[V:1] !fermata!G4z2G2 | 
[V:2] !fermata!D4x2D2 | 
[V:3] !fermata!B4x2BA | 
[V:4] !fermata!G,,4z2G,,A,, | 
[V:1] D2G2G4 | 
[V:2] D2D2-DC/B,/ A,G, | 
[V:3] GA BAG3c | 
[V:4] B,,A,,G,,F,,_E,,4 | 
[V:1] !fermata!A4z2A2 | 
[V:2] !fermata!D4x2^F2 | 
[V:3] !fermata!^F4x2d2 | 
[V:4] !fermata!D,,4z2D,2 | 
[V:1] Bcd2^c4 | 
[V:2] G2AE E^FG2 | 
[V:3] d2ABA4 | 
[V:4] G,2=F,G,A,2A,,2 | 
[V:1] !fermata!d6 |]  
[V:2] !fermata!^F6 |]  
[V:3] !fermata!A6 |]  
[V:4] !fermata!D,6 |]  



